src/assets/img/providers-white/storm_gaming.svg

<svg width="82" height="32" viewBox="0 0 82 32" fill="none" xmlns="http://www.w3.org/2000/svg">
<g clip-path="url(#clip0_4426_8080)">
<path fill-rule="evenodd" clip-rule="evenodd" d="M9.93909 5.1397L6.69907 0.225586L7.21418 5.1397H9.93909ZM37.1521 6.14931C35.2929 6.14931 33.4753 6.70066 31.9294 7.73362C30.3835 8.76658 29.1785 10.2348 28.467 11.9525C27.7555 13.6703 27.5694 15.5604 27.9321 17.384C28.2948 19.2076 29.1901 20.8826 30.5048 22.1973C31.8196 23.512 33.4946 24.4073 35.3182 24.7701C37.1417 25.1328 39.0319 24.9466 40.7496 24.2351C42.4674 23.5236 43.9356 22.3187 44.9685 20.7728C46.0015 19.2268 46.5528 17.4093 46.5528 15.55C46.5501 13.0576 45.5588 10.6681 43.7964 8.90573C42.034 7.14335 39.6445 6.15204 37.1521 6.14931ZM37.1521 22.3752C35.8023 22.3752 34.4827 21.9749 33.3603 21.2249C32.2379 20.475 31.3631 19.409 30.8465 18.1619C30.3299 16.9148 30.1948 15.5424 30.4581 14.2185C30.7215 12.8945 31.3715 11.6784 32.326 10.7239C33.2805 9.76937 34.4967 9.11934 35.8206 8.85599C37.1446 8.59264 38.5169 8.7278 39.764 9.24438C41.0112 9.76096 42.0771 10.6358 42.8271 11.7582C43.577 12.8805 43.9773 14.2001 43.9773 15.55C43.9746 17.3593 43.2546 19.0937 41.9753 20.3731C40.6959 21.6525 38.9615 22.3724 37.1521 22.3752ZM28.1378 9.30696V6.21632H14.2299L16.2904 9.30696H20.1537V24.6932H23.1155V9.30696H28.1378ZM57.8852 6.73141C58.8845 6.73141 61.9751 8.57549 61.9751 12.14C61.9751 16.6009 58.936 17.4611 57.3443 17.6774C58.9205 19.7379 61.9803 24.6005 61.9803 24.6005H59.0802L53.2853 15.7149H56.6644C58.6372 15.7149 59.8168 13.6905 59.8168 12.3667C59.8168 11.0429 58.3024 9.20908 57.2413 9.20908H51.9306V24.6932H49.4168V6.73141H57.8852ZM79.2003 6.63342L73.2766 15.519L67.3528 6.63342H64.87V24.6931H67.5434V11.7845L72.5039 19.0578H73.2766H74.0492L79.0046 11.7845V24.6931H81.678V6.63342H79.2003ZM7.21418 31.7759L3.21695 25.8418H5.8749L7.21418 31.7759ZM10.7375 6.35018L13.0709 9.88381H4.38106L12.7515 21.7982V24.6313H7.75501H5.60186H2.40305L0.450798 21.7313H8.6925L0.322021 9.82199V6.34502L4.3347 6.35018H4.33985L7.34292 6.35533L7.33777 6.35018H10.7375Z" fill="white"/>
</g>
<defs>
<clipPath id="clip0_4426_8080">
<rect width="81.3559" height="32" fill="white" transform="translate(0.322021 0.000976562)"/>
</clipPath>
</defs>
</svg>

<svg xmlns="http://www.w3.org/2000/svg" width="82" height="32" fill="none"><g clip-path="url(#a)"><path fill="#fff" fill-rule="evenodd" d="M9.94 5.14 6.7.226l.514 4.914H9.94Zm27.212 1.01a9.4 9.4 0 1 0 9.4 9.4 9.41 9.41 0 0 0-9.4-9.4Zm0 16.225a6.825 6.825 0 1 1 6.825-6.825 6.836 6.836 0 0 1-6.825 6.825ZM28.138 9.307v-3.09H14.23l2.06 3.09h3.864v15.386h2.962V9.307h5.022Zm29.747-2.576c1 0 4.09 1.844 4.09 5.409 0 4.46-3.039 5.321-4.63 5.537 1.575 2.06 4.635 6.924 4.635 6.924h-2.9l-5.795-8.886h3.38c1.972 0 3.152-2.024 3.152-3.348 0-1.324-1.515-3.158-2.576-3.158h-5.31v15.484h-2.514V6.731h8.468ZM79.2 6.633l-5.923 8.886-5.924-8.886H64.87v18.06h2.673V11.784l4.96 7.274h1.546l4.956-7.274v12.91h2.673V6.633H79.2ZM7.214 31.776l-3.997-5.934h2.658l1.34 5.934ZM10.738 6.35l2.333 3.534H4.38l8.37 11.914v2.833H2.403l-1.952-2.9h8.242L.322 9.822V6.345l4.013.005h.005l3.003.005-.005-.005h3.4Z" clip-rule="evenodd"/></g><defs><clipPath id="a"><path fill="#fff" d="M.322.001h81.356v32H.322z"/></clipPath></defs></svg>
